source/asset/images/icons/icon-social-vk.svg

<svg width="32" height="32" viewBox="0 0 32 32" fill="none" xmlns="http://www.w3.org/2000/svg">
<g filter="url(#filter0_b_1_650)">
<rect width="32" height="32" rx="16" fill="white" fill-opacity="0.08"/>
<path d="M22.3859 12.57C22.4793 12.26 22.3859 12.0327 21.9446 12.0327H20.4826C20.1106 12.0327 19.9406 12.2294 19.8473 12.4454C19.8473 12.4454 19.1039 14.258 18.0506 15.4334C17.7106 15.7754 17.5553 15.8834 17.3699 15.8834C17.2773 15.8834 17.1426 15.7754 17.1426 15.4654V12.57C17.1426 12.198 17.0353 12.0327 16.7253 12.0327H14.4279C14.1959 12.0327 14.0559 12.2047 14.0559 12.3687C14.0559 12.7207 14.5826 12.802 14.6366 13.794V15.946C14.6366 16.4174 14.5519 16.5034 14.3653 16.5034C13.8699 16.5034 12.6646 14.684 11.9493 12.6014C11.8099 12.1967 11.6693 12.0334 11.2959 12.0334H9.83459C9.41659 12.0334 9.33325 12.23 9.33325 12.446C9.33325 12.834 9.82859 14.754 11.6406 17.2934C12.8486 19.0274 14.5493 19.9674 16.0986 19.9674C17.0273 19.9674 17.1419 19.7587 17.1419 19.3987V18.088C17.1419 17.6707 17.2306 17.5867 17.5246 17.5867C17.7406 17.5867 18.1126 17.696 18.9799 18.5314C19.9706 19.522 20.1346 19.9667 20.6913 19.9667H22.1526C22.5699 19.9667 22.7786 19.758 22.6586 19.346C22.5273 18.936 22.0539 18.3394 21.4259 17.6334C21.0846 17.2307 20.5746 16.7974 20.4193 16.5807C20.2026 16.3014 20.2653 16.178 20.4193 15.93C20.4193 15.93 22.2006 13.4227 22.3859 12.57Z" fill="#D0BC7A"/>
<rect x="0.5" y="0.5" width="31" height="31" rx="15.5" stroke="white" stroke-opacity="0.16"/>
</g>
<defs>
<filter id="filter0_b_1_650" x="-24" y="-24" width="80" height="80" filterUnits="userSpaceOnUse" color-interpolation-filters="sRGB">
<feFlood flood-opacity="0" result="BackgroundImageFix"/>
<feGaussianBlur in="BackgroundImage" stdDeviation="12"/>
<feComposite in2="SourceAlpha" operator="in" result="effect1_backgroundBlur_1_650"/>
<feBlend mode="normal" in="SourceGraphic" in2="effect1_backgroundBlur_1_650" result="shape"/>
</filter>
</defs>
</svg>

<svg width="32" height="32" viewBox="0 0 32 32" fill="none" xmlns="http://www.w3.org/2000/svg"><g filter="url(#filter0_b_1_650)"><rect width="32" height="32" rx="16" fill="#fff" fill-opacity=".08"/><path d="M22.386 12.57c.093-.31 0-.537-.441-.537h-1.462c-.372 0-.542.196-.636.412 0 0-.743 1.813-1.796 2.988-.34.342-.496.45-.681.45-.093 0-.227-.108-.227-.418V12.57c0-.372-.108-.537-.418-.537h-2.297c-.232 0-.372.172-.372.336 0 .352.527.433.58 1.425v2.152c0 .471-.084.557-.27.557-.496 0-1.701-1.819-2.417-3.902-.14-.404-.28-.568-.653-.568H9.835c-.418 0-.502.197-.502.413 0 .388.496 2.308 2.308 4.847 1.208 1.734 2.908 2.674 4.458 2.674.928 0 1.043-.208 1.043-.568v-1.311c0-.417.089-.501.383-.501.216 0 .588.109 1.455.944.99.991 1.155 1.436 1.711 1.436h1.462c.417 0 .626-.209.506-.621-.132-.41-.605-1.007-1.233-1.713-.341-.402-.851-.836-1.007-1.052-.216-.28-.154-.403 0-.651 0 0 1.782-2.507 1.967-3.36z" fill="#D0BC7A"/><rect x=".5" y=".5" width="31" height="31" rx="15.5" stroke="#fff" stroke-opacity=".16"/></g><defs><filter id="filter0_b_1_650" x="-24" y="-24" width="80" height="80" filterUnits="userSpaceOnUse" color-interpolation-filters="sRGB"><feFlood flood-opacity="0" result="BackgroundImageFix"/><feGaussianBlur in="BackgroundImage" stdDeviation="12"/><feComposite in2="SourceAlpha" operator="in" result="effect1_backgroundBlur_1_650"/><feBlend in="SourceGraphic" in2="effect1_backgroundBlur_1_650" result="shape"/></filter></defs></svg>
